X:4
O:Macedoine
M:C|
K:C
^fgab | c'4 b4 |\
c'b a2-aeab | c'bab c'bab |
c'b a2-aeae | c'bab c'bab |\
c'b a2 aeae | c'bab c'b a2 |
ad'ad' a2 ae | g^fga fg e2 |\
e2 ga aeae | g^fga fg e2 |
e2 ga aeae | g^fga fg e2 |\
e2 ga aeae | g^fga fg e2 | e2 ga a2 |
efed cdcB | cBcd edef | gfed cdBc | A2 AE ABcd |
efed cdcB | cBcd edef | gfed cdBc | A2 AE A2 z2 ||
